X: 491
T: A Jig for Jerry
C: Bert Murray
R: jig
B: Bert Murray's "Bon Accord Collection" 1999 p.49
%
N: Written for Jerry Holland well known fiddler from Cape Breton
Z: 2011 John Chambers <jc:trillian.mit.edu>
M: 6/8
L: 1/8
K: G
ud |\
g>dB G>Bd | g>fe d>cB | g>dB G>Bd | c3- c2B | A>Bc A>Bc |
f2f f2e |1 d>^cd e>d=c | B3- B2 :|2 d>^cd ^d>ef | g3- g2 ||
d |\
d>BG G>Bd | d>BG G>Bd | d>Bd g>fe | f3- f2e | e^de c>Bc |
A>^GA F>ED | D>FA e>dc | B3- B2 || d | d>BG G>Bd | d>cB d>ef |
g>fg (a2g) | e3- e2e | e^de g>fe | d>^cd g>dB | c>dc (B2A) | G3- G2 |]
